images/right-arrow.svg

<svg enable-background="new 0 0 54 54" height="512" viewBox="0 0 54 54" width="512" xmlns="http://www.w3.org/2000/svg"><g fill="#edb67e"><path d="m27 0c-14.888 0-27 12.112-27 27s12.112 27 27 27 27-12.112 27-27-12.112-27-27-27zm0 52c-13.785 0-25-11.215-25-25s11.215-25 25-25 25 11.215 25 25-11.215 25-25 25z"/><path d="m23.001 14.293c-.391-.391-1.023-.391-1.414 0s-.391 1.023 0 1.414l11.293 11.293-11.293 11.293c-.391.391-.391 1.023 0 1.414.195.195.451.293.707.293s.512-.098.707-.293l11.498-11.498c.667-.667.667-1.751 0-2.418z"/></g></svg>

<?xml version="1.0"?>
<svg xmlns="http://www.w3.org/2000/svg" xmlns:xlink="http://www.w3.org/1999/xlink" version="1.1" id="Capa_1" x="0px" y="0px" viewBox="0 0 54 54" style="enable-background:new 0 0 54 54;" xml:space="preserve" width="512px" height="512px" class=""><g><g>
	<path d="M27,0C12.112,0,0,12.112,0,27s12.112,27,27,27s27-12.112,27-27S41.888,0,27,0z M27,52C13.215,52,2,40.785,2,27   S13.215,2,27,2s25,11.215,25,25S40.785,52,27,52z" data-original="#000000" class="active-path" data-old_color="#D2B78A" fill="#EDB67E"/>
	<path d="M23.001,14.293c-0.391-0.391-1.023-0.391-1.414,0s-0.391,1.023,0,1.414L32.88,27L21.587,38.293   c-0.391,0.391-0.391,1.023,0,1.414C21.782,39.902,22.038,40,22.294,40s0.512-0.098,0.707-0.293l11.498-11.498   c0.667-0.667,0.667-1.751,0-2.418L23.001,14.293z" data-original="#000000" class="active-path" data-old_color="#D2B78A" fill="#EDB67E"/>
</g></g> </svg>
